X:1
T:[ID 2-92]
T:[ID 2-92]
T:Bezeichnung standardisiert: Menuet [mit Trio] Men\"uet Con Trio ex F.=. 1
T:Urheber unbekannt Datum in der hier transkribierten schriftlichen Quelle: 1767
C:Urheber unbekannt
C:Datum in der hier transkribierten schriftlichen Quelle: 1767
L:1/8
M:3/4
K:F
V:1 treble 
V:1
 (FE)F.G.A.B | c2 c2 c2 | fagfed | c2 c2 c2 | (Bc)d.B.A.G | (AB)c.A.G.F | C2 B2 A2 |{A} G6 :: %8
 (c=B)c.d.e.f | g2 cegb |{b} a2 gfef | ge{d} c4 | d2 b2 a2 | ge f4 | B2 A2 G2 | F6 :| %16
[M:3/4]"^Trio" !fermata!F4 (3FGA |{A} G4 F2 | A4 (3ABc |{c} B4 A2 | c=B B3 d | dc c3 E | F2 E2 D2 | %23
{D} C6 :: (3cd_e d2 c2 | BA{A} B4 | (3d=ef e2 d2 | c=B c4 | _BA A3 d | dc c3 f | B2 A2 G2 | F6 :| %32

